**kern	**kern
*part1	*part1
*staff2	*staff1
*I"Piano	*
*clefF4	*clefG2
*k[]	*k[]
=1	=1
2.EE 2.GG	2.G 2.c 2.g
4FF 4GG	4A 4c 4a
=	=
*^	*
2EE 2GG	2ryy	2G 2c 2g
[2F [2G	([2DD [2GG	([2B [2f
=	=	=
2F] 2G]	2DD] 2GG]	2B] 2f]
[2E [2G	[2CC) [2GG	[2c) [2e
=	=	=
2E] 2G]	2CC] 2GG]	2c] 2e]
(2FFF#X 2FF#X	2ryy	(2e 2a 2cc
*v	*v	*
=	=
2GGG 2GG	2e 2g 2b
2CC) 2C	2G) 2c 2e
=	=
2AAA 2AA	2F#X 2c 2e 2f#X
2BBB 2BB	2A 2B 2d#X
=	=
*	*^
((2e 2g	(2.gg	2b
[2dn)) [2fn	.	[2b-X
.	4ffn)	.
=	=	=
(2d] 2f]	(2ff	2b-]
2c#X) 2e	2ee)	2g 2b-X
=	=	=
*^	*	*
2f	2d	(2.ff	2a
8r	(4F	.	8r
(8AL	.	.	(8aL
8Bn	4F#X) 4e	4ee)	8bn
8cnJ)	.	.	8ccnJ)
*v	*v	*	*
*	*v	*v
=	=
*-	*-
!!!system-decoration: {(s1,s2)}
